**kern	**kern	**dynam
*part1	*part1	*part1
*staff2	*staff1	*
*I"Piano	*	*
*clefF4	*clefG2	*
*k[b-e-a-]	*k[b-e-a-]	*
*M2/2	*M2/2	*
*met(c|)	*met(c|)	*
=1	=1	=1
!	!	!LO:DY:a
2.EE-; 2.GG 2.BB- 2.E-	2.G; 2.B- 2.e-	f
=||	=||	=||
4r	4e-	p
=	=	=
1r	2b-	.
.	2b-	.
=	=	=
.	16qqan/LL	.
.	16qqb-/	.
.	16qqcc/JJ	.
2r	2.b-	.
4r	.	.
4e-	4g 4b-	.
=	=	=
2d	2f 2b-	.
2c	2f 2an 2ee-	.
=	=	=
4B-	2f 2an 2ee-	.
4BB-	.	.
4B-	4b-' 4dd	.
4B- 4c	4en' 4g	.
=	=	=
4B- 4c	4en' 4cc	.
4A- 4c	4f'	.
4A- 4B-	4d' 4b-	.
4G 4B-	4e-X' 4b-	.
=	=	=
4F 4c	4f' 4b-	.
4F 4c	4f' 4a-	.
4r	4r	.
4F 4c	4f 4a-	.
=	=	=
*-	*-	*-
!!!system-decoration: {(s1,s2)}
